X:21
T:Jemmy Lass. JJo8.021, The
%%VWML:JohnsonVol8-2184-p11-0
F:http://www.vwml.org/record/JohnsonVol8/2184/p11
Z:Transcribed by Simon Furey and Lewis Jones
Z:vmp.Simon Wilson 2013 www.village-music-project.org.uk
Z:Dance added by John Chambers 2017
M:C|
L:1/8
%Q:1/2=80
K:A
|: c/d/ |\
edcB (A/B/c) (B/c/d) | (ca)(gf) {f}e2(dc) |\
db2a (ge)(af) | (ec)(BA)B3 :|
|: c |\
(BA)(Bc) (dc)(de) | f/g/a2f{a}g2(fe) |\
(dc)(db) (cB)(ca) | (BA)(BG)A3 :|
W: Set and hands 3 with the 2d Wo. .|
W:Set and hands 3 with the 2d Man :|
W:Cross over and half figure :||. Right
W:hands and Left :||: Right hands across
W:at Bottom .| Lead thro' the Bottom cast
W:up and foot it :| Left hands across at top :||.
W:Lead thro' the top cast off and foot it :||:
W:
T:Phoebe's Delight. JJo8.022
B:J.Johnson Choice Collection Vol 8 1758
Z:vmp.Simon Wilson 2013 www.village-music-project.org.uk
Z:Dance added by John Chambers 2017
M:6/8
L:1/8
%Q:3/8=120
K:A
|: E |\
CEA Ace | {d}c3-c2d/f/ | ecA dBG | AED CB,A, |\
CEA Ace | {d}c3-c2a | gbe fa^d | (e3e2) :|
|: B |\
GBe egb | {a}g3-g2a | bge af^d | eBA GFE |\
CEA Ace | {d}c3-c2(d/f/) | ecA dBG | A3A2 :|
W: Cast off two Cu. .| Lead up to the
W:top and cast off :| Right hands across
W:at Bottom :||. Right hands and Left
W:at top :||: foot it at both Corners and
W:turn :| Lead thro' Bottom and top
W:and turn your Partner :||:
W:
